icons/arduino-filled.svg

<svg width="256" height="256" viewBox="0 0 256 256" fill="none" xmlns="http://www.w3.org/2000/svg">
<rect width="256" height="256" rx="60" fill="#00979C"/>
<path fill-rule="evenodd" clip-rule="evenodd" d="M19 136.512V120.095C19.3442 119.924 19.3442 119.582 19.3442 119.24C24.5074 96.8376 38.6201 83.3275 60.9939 78.0261C62.8871 77.5131 64.9524 77.6841 66.8455 77H77.8603C78.0324 77.3421 78.5487 77.1711 78.893 77.1711C89.9078 78.3682 99.8899 82.3015 108.667 89.142C116.24 94.7854 122.092 101.968 127.427 109.663C128.115 110.689 128.46 110.689 129.148 109.663C132.246 105.217 135.516 100.942 139.302 97.0086C148.424 87.2609 159.439 80.4203 172.863 78.0261C174.756 77.5131 176.993 77.6841 178.887 77H189.557C189.729 77.3421 190.074 77.1711 190.418 77.1711C193.688 77.5131 196.786 78.1971 199.884 79.0522C222.946 85.7217 239.296 106.756 237.919 130.527C236.886 150.536 226.732 164.901 209.005 173.964C200.228 178.753 190.59 179.95 180.608 179.779C167.528 179.608 156.169 175.161 146.359 166.611C139.474 160.625 134.139 153.443 129.148 145.918C128.46 144.892 128.115 145.063 127.427 146.089C124.329 150.707 121.059 155.324 117.273 159.77C110.561 167.295 102.816 173.451 93.1778 176.701C81.3025 180.805 69.255 180.976 57.2076 177.727C39.8249 172.767 27.9495 161.822 21.4095 145.063C20.3768 142.327 19.8605 139.249 19 136.512ZM73.7298 161.651C83.5398 161.993 91.973 158.744 99.2015 152.075C106.602 145.234 111.937 136.683 117.273 128.304C117.445 127.791 117.445 127.449 117.101 126.936C112.626 119.924 107.979 112.913 101.783 107.098C89.9078 95.8115 75.9672 92.0492 60.3055 97.0086C47.3975 101.284 39.1364 110.347 37.2433 124.028C35.3501 136.854 40.3412 147.115 50.6675 154.811C57.5518 159.77 65.2966 161.822 73.7298 161.651ZM182.845 161.651C186.631 161.651 190.418 161.48 194.032 160.454C207.628 156.35 216.578 147.97 219.16 133.947C221.741 120.095 216.406 108.979 204.703 101.113C191.795 92.2202 173.035 93.0753 159.955 102.823C151.178 109.321 145.326 118.043 139.474 127.107C139.13 127.62 139.302 127.962 139.474 128.475C144.121 135.828 148.768 143.182 154.792 149.509C162.364 157.547 171.486 162.164 182.845 161.651Z" fill="white"/>
<path fill-rule="evenodd" clip-rule="evenodd" d="M73.5577 122.831C79.0651 122.831 84.7446 123.002 90.252 122.831C91.6289 122.831 91.801 123.173 91.801 124.541C91.6288 126.081 91.6288 127.62 91.801 129.159C91.9731 130.527 91.6288 130.869 90.0799 130.869H68.0503C64.264 130.869 60.4776 130.698 56.6913 130.869C55.4865 130.869 55.1423 130.527 55.1423 129.159C55.3144 127.62 55.3144 126.081 55.1423 124.37C55.1423 123.173 55.4865 122.831 56.6913 122.831C62.1987 123.002 67.8782 122.831 73.5577 122.831ZM181.985 111.886C183.361 111.886 184.738 112.057 185.943 111.886C186.804 111.886 187.148 112.228 187.148 113.083C186.976 115.478 187.148 117.872 186.976 120.266C186.976 121.463 187.32 121.805 188.525 121.805C190.762 121.634 193.172 121.805 195.581 121.634C196.614 121.634 196.958 121.805 196.958 123.002V130.869C196.958 131.724 196.614 132.066 195.753 132.066C193.344 131.895 190.934 132.066 188.353 131.895C187.32 131.895 186.976 132.237 186.976 133.263C187.148 135.657 186.976 138.051 187.148 140.446C187.148 141.472 186.804 141.985 185.771 141.985C183.189 141.814 180.608 141.814 178.026 141.985C176.994 141.985 176.649 141.643 176.649 140.617C176.821 138.051 176.649 135.657 176.821 133.092C176.821 132.237 176.477 131.895 175.617 131.895C173.207 132.066 170.798 131.895 168.388 132.066C167.011 132.066 166.839 131.553 166.839 130.527C166.839 128.133 167.011 125.738 166.839 123.344C166.667 121.976 167.356 121.634 168.56 121.634C170.97 121.805 173.207 121.634 175.617 121.805C176.477 121.805 176.821 121.463 176.821 120.608C176.649 118.214 176.821 115.649 176.649 113.255C176.649 112.228 176.994 111.886 178.026 111.886C179.403 112.057 180.608 111.886 181.985 111.886Z" fill="white"/>
</svg>

<svg xmlns="http://www.w3.org/2000/svg" width="256" height="256" fill="none"><rect width="256" height="256" fill="#00979C" rx="60"/><path fill="#fff" fill-rule="evenodd" d="M19 136.512v-16.417c.344-.171.344-.513.344-.855 5.163-22.402 19.276-35.912 41.65-41.214 1.893-.513 3.958-.342 5.852-1.026H77.86c.172.342.689.171 1.033.171 11.015 1.197 20.997 5.13 29.774 11.971 7.573 5.643 13.425 12.826 18.76 20.521.688 1.026 1.033 1.026 1.721 0 3.098-4.446 6.368-8.721 10.154-12.654 9.122-9.748 20.137-16.589 33.561-18.983 1.893-.513 4.13-.342 6.024-1.026h10.67c.172.342.517.171.861.171 3.27.342 6.368 1.026 9.466 1.881 23.062 6.67 39.412 27.704 38.035 51.475-1.033 20.009-11.187 34.374-28.914 43.437-8.777 4.789-18.415 5.986-28.397 5.815-13.08-.171-24.439-4.618-34.249-13.168-6.885-5.986-12.22-13.168-17.211-20.693-.688-1.026-1.033-.855-1.721.171-3.098 4.618-6.368 9.235-10.154 13.681-6.712 7.525-14.457 13.681-24.095 16.931-11.876 4.104-23.923 4.275-35.97 1.026-17.383-4.96-29.258-15.905-35.798-32.664-1.033-2.736-1.55-5.814-2.41-8.551m54.73 25.139c9.81.342 18.243-2.907 25.471-9.576 7.401-6.841 12.736-15.392 18.072-23.771.172-.513.172-.855-.172-1.368-4.475-7.012-9.122-14.023-15.318-19.838-11.875-11.287-25.816-15.049-41.477-10.09-12.908 4.276-21.17 13.339-23.063 27.02-1.893 12.826 3.098 23.087 13.424 30.783 6.885 4.959 14.63 7.011 23.063 6.84m109.115 0c3.786 0 7.573-.171 11.187-1.197 13.596-4.104 22.546-12.484 25.128-26.507 2.581-13.852-2.754-24.968-14.457-32.834-12.908-8.893-31.668-8.038-44.748 1.71-8.777 6.498-14.629 15.22-20.481 24.284-.344.513-.172.855 0 1.368 4.647 7.353 9.294 14.707 15.318 21.034 7.572 8.038 16.694 12.655 28.053 12.142" clip-rule="evenodd"/><path fill="#fff" fill-rule="evenodd" d="M73.558 122.831c5.507 0 11.187.171 16.694 0 1.377 0 1.549.342 1.549 1.71a20.7 20.7 0 0 0 0 4.618c.172 1.368-.172 1.71-1.721 1.71H68.05c-3.786 0-7.572-.171-11.359 0-1.205 0-1.549-.342-1.549-1.71.172-1.539.172-3.078 0-4.789 0-1.197.344-1.539 1.55-1.539 5.507.171 11.186 0 16.866 0m108.427-10.945c1.376 0 2.753.171 3.958 0 .861 0 1.205.342 1.205 1.197-.172 2.395 0 4.789-.172 7.183 0 1.197.344 1.539 1.549 1.539 2.237-.171 4.647 0 7.056-.171 1.033 0 1.377.171 1.377 1.368v7.867c0 .855-.344 1.197-1.205 1.197-2.409-.171-4.819 0-7.4-.171-1.033 0-1.377.342-1.377 1.368.172 2.394 0 4.788.172 7.183 0 1.026-.344 1.539-1.377 1.539a58.5 58.5 0 0 0-7.745 0c-1.032 0-1.377-.342-1.377-1.368.172-2.566 0-4.96.172-7.525 0-.855-.344-1.197-1.204-1.197-2.41.171-4.819 0-7.229.171-1.377 0-1.549-.513-1.549-1.539 0-2.394.172-4.789 0-7.183-.172-1.368.517-1.71 1.721-1.71 2.41.171 4.647 0 7.057.171.86 0 1.204-.342 1.204-1.197-.172-2.394 0-4.959-.172-7.353 0-1.027.345-1.369 1.377-1.369 1.377.171 2.582 0 3.959 0" clip-rule="evenodd"/></svg>
